!!!!SEGMENT: pl-sa--291-a-vii-51--002_lechleitner-ferdinand-simon--psalmodia-laetatus.krn
!!!cenid: 17xx:427
!!!COM: Lechleitner, Ferdinand Simon
!!!COM-rismID: pe30001903
!!!CDT: ~1700-~1800
!!!CNT:
!!!OPR: Psalmodia
!!!OTL: Laetatus
!!!OMV: 002
!!!PDT: 1731
!!!AGN: Sacred
!!!SMS-siglum: PL-SA
!!!SMS-shelfmark: 291/A VII 51
!!!SMS-shelfwork: 001-002 M
!!!NIFC-rismSourceID: 1001077288
!!!NIFC-rismChildID: 1001077288
!!!NIFC-islandoraID:
!!!URL-pdf-islandora:
!!!URL-scan: https://bc.bdsandomierz.pl/dlibra/publication/1787/edition/1768/content @EN{Scan in the Sandomierz Diocese Digital Library} @PL{Skany w portalu Cyfrowa Biblioteka Diecezjalna w Sandomierzu}
!!!ONB-nifc: UWAGA: części Psalmodii: Laudate Dominum, Laetatus, Nisi Dominus, Lauda Jerusalem
!!!AIN: 1 alto 2 empty 1 tenor 2 violn 1 vox
!!!key:
**kern	**fba	**kern	**kern	**kern	**text	**kern	**text	**kern	**text	**kern	**text
*part7	*	*part6	*part5	*part4	*part4	*part3	*part3	*part2	*part2	*part1	*part1
*	*	*group2	*group2	*group1	*	*group1	*	*group1	*	*group1	*
*staff7	*	*staff6	*staff5	*staff4	*staff4	*staff3	*staff3	*staff2	*staff2	*staff1	*staff1
*Iempty	*	*Ivioln	*Ivioln	*Iempty	*	*Itenor	*	*Ialto	*	*Ivox	*
*I"Baſso Conti.	*	*I"Violino 2do	*I"Violino 1mo	*I"Baſso	*	*I"Tenore	*	*I"Alto	*	*I"Canto	*
*I'b.c.	*	*I'vl 2	*I'vl 1	*I'B	*	*I'T	*	*I'A	*	*I'S	*
*clefF4	*	*clefG2	*clefG2	*clefF4	*	*clefC4	*	*clefC3	*	*clefC1	*
*k[f#c#g#]	*	*k[f#c#g#]	*k[f#c#g#]	*k[f#c#g#]	*	*k[f#c#g#]	*	*k[f#c#g#]	*	*k[f#c#g#]	*
*A:	*	*A:	*A:	*A:	*	*A:	*	*A:	*	*A:	*
*M4/4	*	*M4/4	*M4/4	*M4/4	*	*M4/4	*	*M4/4	*	*M4/4	*
*met(C.)	*	*met(C.)	*met(C.)	*met(c)	*	*met(C.)	*	*met(C.)	*	*met(C.)	*
!LO:TX:a:t=Largo	!	!	!	!	!	!LO:TX:a:t=Largo	!	!	!	!	!
!LO:TX:b:t=Laetat(us) ſum	!	!LO:TX:b:t=Laetatus ſum	!LO:TX:b:t=Laetatus ſum	!	!	!	!	!LO:TX:a:t=Laetatus	!	!LO:TX:a:t=Laetatus	!
!LO:TX:a:t=P:problem=brak nazwy instrumentu na karcie głosu, spisane z karty tytułowej	!	!LO:TX:a:t=P:problem=krzyżyki g# cc# ff# jeden nad drugim	!LO:TX:a:t=P:problem=krzyżyki g# cc# ff# jeden nad drugim	!LO:TX:a:t=P:problem=krzyżyki GG# C# F# jeden nad drugim	!	!LO:TX:a:t=P:problem=krzyżyki G# c# f# jeden nad drugim	!	!LO:TX:a:t=P:problem=krzyżyki F# c# g# jeden nad drugim	!	!LO:TX:a:t=P:problem=krzyżyki f# cc# jeden nad drugim, obok g#	!
8r	.	16a/LL	16cc#\LL	8r	.	8r	.	8r	.	8r	.
.	.	16b/JJ	16dd\JJ	.	.	.	.	.	.	.	.
=1	=1	=1	=1	=1	=1	=1	=1	=1	=1	=1	=1
!	!	!	!LO:TX:a:t=P:problem=mixed beam	!	!	!	!	!	!	!	!
8r	.	8cc#\L	8ee\L	1rA	.	0r	.	0r	.	00r	.
!LO:TX:a:t=Solo	!	!	!	!	!	!	!	!	!	!	!
16A\LL	.	8a\J	8a/J	.	.	.	.	.	.	.	.
16G#\JJ	.	.	.	.	.	.	.	.	.	.	.
!LO:TX:a:t=P:problem=mixed beam	!	!	!	!	!	!	!	!	!	!	!
8A\L	.	8r	8r	.	.	.	.	.	.	.	.
8AA/J	.	8cc#\	8aa\	.	.	.	.	.	.	.	.
4D/	.	8dd\L	8ff#\L	.	.	.	.	.	.	.	.
.	.	16ee\L	16ggn\L	.	.	.	.	.	.	.	.
.	.	16dd\JJ	16ff#\JJ	.	.	.	.	.	.	.	.
4GG#/	6	8.cc#\L	8.ee\L	.	.	.	.	.	.	.	.
.	5	16b\Jk	16dd\Jk	.	.	.	.	.	.	.	.
=2	=2	=2	=2	=2-	=2	=2	=2	=2	=2	=2	=2
4AA/	.	8a/L	8cc#\L	2rF	.	.	.	.	.	.	.
.	.	16f#/L	16b\L	.	.	.	.	.	.	.	.
.	.	16g#/JJ	16cc#\JJ	.	.	.	.	.	.	.	.
4D\	.	16b/LL	16dd\LL	.	.	.	.	.	.	.	.
.	.	16a/	16cc#\	.	.	.	.	.	.	.	.
.	.	16g#/	16b\	.	.	.	.	.	.	.	.
.	.	16f#/JJ	16a\JJ	.	.	.	.	.	.	.	.
!LO:TX:a:t=P:problem=mixed beam	!	!	!	!	!	!	!	!	!	!	!
8E\L	.	8e/L	16g#/LL	4r	.	.	.	.	.	.	.
.	.	.	16e/	.	.	.	.	.	.	.	.
8D\	.	8e/	16a/	.	.	.	.	.	.	.	.
.	.	.	16b/JJ	.	.	.	.	.	.	.	.
8E\	.	8e/	8.b/L	8r	.	.	.	.	.	.	.
8EE/J	.	8e/J	.	8E\	Lae-	.	.	.	.	.	.
.	.	.	16a/Jk	.	.	.	.	.	.	.	.
=3	=3	=3	=3	=3	=3	=3-	=3	=3-	=3	=3	=3
4AA/	.	4e/	4a/	8A\	-ta-	4r	.	4r	.	.	.
.	.	.	.	8A\	-tus	.	.	.	.	.	.
8r	.	4r	4r	8B\	ſu(m)	8r	.	8r	.	.	.
8E\	.	.	.	8B\	in	8c#\	Lae-	8e\	Lae-	.	.
8A\L	.	2rg	2r	4c#\	his	8c#\	-ta-	8e\	-ta-	.	.
8A\	.	.	.	.	.	8A/	-tus	8c#/	-tus	.	.
8B\	6	.	.	8r	.	4r	.	4r	.	.	.
*	*	*	*	*	*ij	*	*	*	*	*	*
8B\J	.	.	.	8E\	Lae-	.	.	.	.	.	.
=4	=4	=4-	=4	=4	=4	=4	=4	=4	=4	=4	=4
8c#\L	6	00r	00r	8A\	-ta-	4r	.	4r	.	.	.
8A\J	.	.	.	8A\	-tus	.	.	.	.	.	.
8r	.	.	.	8B\	ſu(m)	8r	.	8r	.	.	.
*	*	*	*	*	*	*	*	*	*ij	*	*
8E\	.	.	.	8B\	in	8c#\	lae-	8e\	Lae-	.	.
8A\L	.	.	.	4c#\	his	8c#\	-ta-	8e\	-ta-	.	.
*	*	*	*	*	*Xij	*	*	*	*	*	*
8A\	.	.	.	.	.	8A/	-tus	8c#/	-tus	.	.
*	*	*	*	*	*	*	*	*	*Xij	*	*
8B\	.	.	.	8r	.	4r	.	4r	.	.	.
8B\J	.	.	.	8E\	quae	.	.	.	.	.	.
=5	=5	=5	=5	=5	=5	=5-	=5	=5	=5	=5	=5
8c#\L	.	.	.	8c#\	di-	0r	.	0r	.	0r	.
16A\L	.	.	.	16A\	-cta	.	.	.	.	.	.
16G#\JJ	.	.	.	16G#\	ſunt	.	.	.	.	.	.
!LO:LB:g=original	!	!	!	!LO:LB:g=original	!	!	!	!	!	!	!
8F#\L	7	.	.	8F#\L	mi-	.	.	.	.	.	.
8B\J	#	.	.	8B\J	.	.	.	.	.	.	.
4E\	.	.	.	8E,<\	-hi	.	.	.	.	.	.
.	.	.	.	(16A\LL	in	.	.	.	.	.	.
.	.	.	.	16G#\JJ)	.	.	.	.	.	.	.
8r	.	.	.	8A\	do-	.	.	.	.	.	.
8AA/	.	.	.	8A\	-mum	.	.	.	.	.	.
=6	=6	=6	=6	=6	=6	=6	=6	=6	=6	=6	=6
8D/L	.	.	.	8F#\	Do-	.	.	.	.	.	.
16D/L	.	.	.	16F#\	-mi-	.	.	.	.	.	.
16C#/JJ	.	.	.	16F#\	-ni	.	.	.	.	.	.
8BB/L	.	.	.	8B\	do-	.	.	.	.	.	.
8D/J	.	.	.	8B\	-mu(m)	.	.	.	.	.	.
!LO:TX:a:t=P:problem=mixed beam	!	!	!	!	!	!	!	!	!	!	!
8E\L	.	.	.	8A\	do-	.	.	.	.	.	.
8D\	.	.	.	16B\	-mi-	.	.	.	.	.	.
.	.	.	.	16D/	-ni	.	.	.	.	.	.
8E\	.	.	.	8E\	i-	.	.	.	.	.	.
8EE/J	.	.	.	8EE/	-bi-	.	.	.	.	.	.
=7	=7	=7	=7	=7	=7	=7-	=7	=7-	=7	=7-	=7
4AA/	.	.	.	4AA/	-mus	4r	.	4r	.	4r	.
*clefC4	*	*	*	*	*	*	*	*	*	*	*
*k[f#c#]	*	*	*	*	*	*	*	*	*	*	*
!LO:TX:a:t=P:problem=po kluczu znaki F# c# f# jeden nad drugim	!	!	!	!	!	!	!	!	!	!	!
8A\L	.	.	.	4r	.	8A/	ſtan-	8e\	ſtan-	8cc#\	ſtan-
8A\J	.	.	.	.	.	8A/	-tes	8e\	-tes	8cc#\	-tes
*2\right	*	*	*	*	*	*	*	*	*	*	*
2A\	6 4	.	.	2r	.	2A/	e-	(8f#\L	e-	(8dd\L	e-
.	.	.	.	.	.	.	.	8e\J)	.	8cc#\J)	.
.	.	.	.	.	.	.	.	(8f#\L	.	(8dd\L	.
.	.	.	.	.	.	.	.	16gn\L)	.	16ee\L	.
.	.	.	.	.	.	.	.	16f#\JJ	.	16dd\JJ)	.
=8	=8	=8	=8	=8-	=8	=8	=8	=8	=8	=8	=8
4A\	6 3	00r	00r	0r	.	4A/	-rant	8e\	.	8cc#\	.
.	.	.	.	.	.	.	.	8e\	-runt	8cc#,<\	-rant
8e\L	.	.	.	.	.	8e\	e-	8e\	e-	8b\	e-
8e\J	.	.	.	.	.	8e\	-rant	8e\	-rant	8b\	-rant
!	!	!	!	!	!	!	!	!LO:LB:g=original	!	!	!
8d#X\L	.	.	.	.	.	8d#X\	pe-	8f#\	pe-	(16b\LL	pe-
.	.	.	.	.	.	.	.	.	.	16e\JJ)	.
8e\J	.	.	.	.	.	8e\	-des	8g#\	-des	8ee\	-des
4B\	4	.	.	.	.	4B\	no-	4f#\	noſ-	(8ee\L	noſ-
.	#3r	.	.	.	.	.	.	.	.	8dd#X\J)	.
!	!	!	!	!	!	!LO:LB:g=original	!	!	!	!	!
=9	=9	=9	=9	=9	=9	=9	=9	=9	=9	=9	=9
!LO:TX:a:t=P:problem=mixed beam	!	!	!	!	!	!	!	!	!	!LO:N:vis=4	!
8E/L	.	.	.	.	.	8E/	-stri	8g#\	-tri	8ee\	-tri
8e\	.	.	.	.	.	8e\	in	8g#\	in	8b\	in
!	!	!	!	!	!	!	!	!	!	!LO:LB:g=original	!
8c#\	.	.	.	.	.	8c#\	a-	8a\	a-	8cc#\	a-
8A\J	.	.	.	.	.	16A/	-tri-	16g#\	-tri-	16b\	-tri-
!LO:TX:a:t=P:problem=zamazane nuty	!	!	!	!	!	!	!	!	!	!	!
.	.	.	.	.	.	16A/	-js	16a\	-is	16cc#\	-is
8d\	.	.	.	.	.	8d\	tu-	8f#\	tu-	8b\	tu-
8c#\	.	.	.	.	.	16c#\	-is	16f#\	-is	16b\	-is
!LO:TX:a:t=P:problem=jeszcze jedna nuta 8e/ ?	!	!	!	!	!	!	!	!	!	!	!
.	.	.	.	.	.	16d\	Je-	16f#\	Je-	16b\	Je-
!LO:PB:g=original	!	!	!	!	!	!	!	!	!	!	!
!LO:TX:a:t=P:problem=mixed beam	!	!	!	!	!	!	!	!	!	!	!
8e\L	.	.	.	.	.	8e\	-ru-	8.g#\	-ru-	8.bT\	-ru-
8E/J	.	.	.	.	.	8E/	-ſa-	.	.	.	.
.	.	.	.	.	.	.	.	16g#\	-ſa-	16b\	-ſa-
=10	=10	=10	=10	=10	=10	=10	=10	=10	=10	=10	=10
8A/	.	.	.	1r	.	8A/	-lem	8a\	-lem	8cc#\	-lem
*clefF4	*	*	*	*	*	*	*	*	*	*	*
*k[f#c#g#]	*	*	*	*	*	*	*	*	*	*	*
!LO:TX:a:t=P:problem=po kluczu znaki FF# C# F# G# jeden nad drugim	!	!	!	!	!	!	!	!	!	!	!
8D\	.	.	.	.	.	8f#\	Je-	8r	.	8r	.
!LO:TX:a:t=P:problem=mixed beam	!	!	!	!	!	!	!	!	!	!	!
8E\L	.	.	.	.	.	8B\	-ru-	4r	.	4r	.
8EE/J	.	.	.	.	.	8e\	-ſa-	.	.	.	.
4AA/	.	.	.	.	.	4c#\	-lem	2rf	.	8r	.
.	.	.	.	.	.	.	.	.	.	16cc#\	quae
.	.	.	.	.	.	.	.	.	.	16dd\	e-
8r	.	.	.	.	.	4r	.	.	.	8ee\	-di-
16C#/LL	.	.	.	.	.	.	.	.	.	8a\	-fi-
16D/JJ	.	.	.	.	.	.	.	.	.	.	.
=11	=11	=11	=11	=11-	=11	=11-	=11	=11-	=11	=11	=11
!LO:TX:a:t=P:problem=mixed beam	!	!	!	!	!	!	!	!	!	!	!
8E\L	.	.	.	2r	.	00r	.	00r	.	8g#/	-ca-
8D\	.	.	.	.	.	.	.	.	.	16a\	-tur
.	.	.	.	.	.	.	.	.	.	16b\	ut
8E\	.	.	.	.	.	.	.	.	.	8.b\	Ci-
8EE/J	.	.	.	.	.	.	.	.	.	.	.
.	.	.	.	.	.	.	.	.	.	16a\	-vi-
4AA/	.	.	.	4r	.	.	.	.	.	8a\	-tas
.	.	.	.	.	.	.	.	.	.	8cc#\	in
!	!	!	!	!	!	!	!	!	!	!LO:LB:g=original	!
!	!	!	!	!	!	!	!	!	!	!LO:TX:b:t=P:problem=brak tekstu w źródle	!
4r	.	.	.	8A\	Il-	.	.	.	.	8cc#\	.
.	.	.	.	8A\	-luc	.	.	.	.	8cc#\	.
=12	=12	=12	=12	=12	=12	=12	=12	=12	=12	=12	=12
8r	.	1r	1r	8F#\	e-	.	.	.	.	8ff#\	.
8F#\L	.	.	.	8F#\	-nim	.	.	.	.	8ff#\	.
!	!	!	!	!LO:LB:g=original	!	!	!	!	!	!	!
8F#\	.	.	.	8F#\	a-	.	.	.	.	8ff#\	.
8F#\J	.	.	.	8F#\	-scen-	.	.	.	.	16ee\	.
.	.	.	.	.	.	.	.	.	.	16ff#\	.
8B\L	#	.	.	8B\	-de-	.	.	.	.	8dd#X\	.
16B\L	.	.	.	(16B\LL	-runt	.	.	.	.	8b\	.
16A\JJ	.	.	.	16A\JJ)	.	.	.	.	.	.	.
8G#\L	.	.	.	8G#\	tri-	.	.	.	.	8r	.
8E\J	.	.	.	8E\	-b(us)	.	.	.	.	8ee\	.
=13	=13	=13-	=13-	=13	=13	=13	=13	=13	=13	=13	=13
!LO:TX:a:t=P:problem=mixed beam	!	!	!	!	!	!	!	!	!	!	!
8A\L	.	2r	2rdd	8A\	tri-	.	.	.	.	8r	.
8A#X\	6	.	.	8A#X\	-b(us)	.	.	.	.	8ff#\	.
8B\	4	.	.	8.B\	Do-	.	.	.	.	4ff#\	.
8BB/J	#3r	.	.	.	.	.	.	.	.	.	.
.	.	.	.	16BB/	-mi-	.	.	.	.	.	.
4E\	.	8r	8r	4E\	-ni	.	.	.	.	4ee\	.
.	.	16ee\LL	16gg#\LL	.	.	.	.	.	.	.	.
.	.	16ff#\JJ	16aa\JJ	.	.	.	.	.	.	.	.
8r	.	8gg#\L	8bb\L	8r	.	.	.	.	.	4r	.
16E\LL	.	8ee\J	8ee\J	16E\	teſ-	.	.	.	.	.	.
16D#X\JJ	.	.	.	16D#X/	-ti-	.	.	.	.	.	.
!LO:LB:g=original	!	!	!	!	!	!	!	!	!	!	!
=14	=14	=14	=14	=14	=14	=14	=14	=14	=14	=14-	=14
!LO:TX:a:t=P:problem=mixed beam	!	!	!	!	!	!	!	!	!	!	!
8E\L	.	4r	4r	8F#\	-mo-	.	.	.	.	0r	.
8EE/	.	.	.	16F#\	-ni-	.	.	.	.	.	.
.	.	.	.	16F#\	-um	.	.	.	.	.	.
8AA/	.	8r	8r	16A\	I-	.	.	.	.	.	.
.	.	.	.	16A\	-sra-	.	.	.	.	.	.
8E/J	.	8g#/	8ee\	16E\	-el	.	.	.	.	.	.
.	.	.	.	16E\	ad	.	.	.	.	.	.
4A\	.	8a/L	8cc#\L	8AA/	Con-	.	.	.	.	.	.
.	.	16b/L	16dd\L	8AA/	-fi-	.	.	.	.	.	.
.	.	16a/JJ	16cc#\JJ	.	.	.	.	.	.	.	.
!	!	!	!	!LO:PB:g=original	!	!	!	!	!	!	!
4D#X\	6 5	8g#/L	8.b/L	8D#X/	-ten-	.	.	.	.	.	.
.	.	8g#/J	.	16D#/	-dum	.	.	.	.	.	.
.	.	.	16a/Jk	16D#/	ad	.	.	.	.	.	.
!	!	!	!LO:LB:g=original	!	!	!	!	!	!	!	!
=15	=15	=15	=15	=15	=15	=15	=15	=15	=15	=15	=15
8E\L	.	8e/L	8g#/L	8E\	Con-	1r	.	1r	.	.	.
8E\	.	16d#X/L	16f#/L	8E\	-fi-	.	.	.	.	.	.
.	.	16e/JJ	16g#/JJ	.	.	.	.	.	.	.	.
8A\	6	16f#/LL	16a/LL	8A\	-ten-	.	.	.	.	.	.
.	.	16e/	16g#/	.	.	.	.	.	.	.	.
8A\J	5	16d#/	16f#/	8A\	-du(m)	.	.	.	.	.	.
.	.	16c#/JJ	16e/JJ	.	.	.	.	.	.	.	.
!LO:TX:a:t=P:problem=mixed beam	!	!LO:LB:g=original	!	!	!	!	!	!	!	!	!
8B\L	#	8B/L	16d#X/LL	8B\	No-	.	.	.	.	.	.
.	.	.	16B/	.	.	.	.	.	.	.	.
8A\	.	8c#/	16e/	16A\	-mi-	.	.	.	.	.	.
.	.	.	16f#/JJ	16A\	-ni	.	.	.	.	.	.
8B\	.	8B/	8.f#/L	8B\	Do-	.	.	.	.	.	.
8BB/J	.	8B/J	.	8BB/	-mi-	.	.	.	.	.	.
.	.	.	16e/Jk	.	.	.	.	.	.	.	.
!	!	!	!	!	!	!LO:PB:g=original	!	!	!	!	!
=16	=16	=16	=16-	=16-	=16	=16-	=16	=16-	=16	=16	=16
*M3/4	*	*M3/4	*M3/4	*M3/4	*	*M3/4	*	*M3/4	*	*M3/4	*
!LO:TX:a:t=Tutti	!	!	!	!	!	!	!	!LO:N:vis=0	!	!LO:N:vis=0	!
4E\	.	4B/	4e/	4E\	-ni	2.r	.	1.r	.	1.r	.
4E\|	.	4r	4r	4E\|	qui-	.	.	.	.	.	.
4E\|	.	4r	4r	4E\|	-a	.	.	.	.	.	.
=17	=17	=17	=17-	=17	=17	=17-	=17	=17	=17	=17	=17
!	!	!	!LO:N:vis=0	!	!	!	!	!	!	!	!
4B\	5	2.rff	1.r	4B\|	il-	4r	.	.	.	.	.
*	*	*	*	*	*	*2\right	*	*	*	*	*
4B\	5	.	.	4B\|	-lic	2B\	Ro-	.	.	.	.
4B\	5	.	.	4B\|	ſe-	.	.	.	.	.	.
!	!	!LO:PB:g=original	!	!	!	!	!	!	!	!	!
=18	=18	=18-	=18	=18	=18	=18	=18	=18	=18	=18	=18
4G#\	6_	4r	.	4G#\	-de-	4e\	-ga-	4r	.	2.r	.
8E\L	.	4e/	.	(8E\L	-runt	4e\	-te	4e\	Fi-	.	.
8F#\J	.	.	.	8F#\J)	.	.	.	.	.	.	.
4G#\	X	4e/	.	4G#\	ſe-	4e\	ro-	4e\	-at	.	.
!	!	!	!	!	!	!	!	!	!	!LO:PB:g=original	!
=19	=19	=19	=19-	=19	=19	=19	=19	=19	=19	=19-	=19
!	!	!	!	!LO:SIC:s=4d#	!	!	!	!	!	!	!
4D#X\	6	4b/	4r	8D#X/	-de-	4d#X\	-ga-	4b\	pax	4r	.
.	.	.	.	8ryy	.	.	.	.	.	.	.
!	!	!	!	!LO:LB:g=original	!	!	!	!	!	!	!
!	!	!	!	!LO:TX:a:t=P:problem=krzyżyk nad pięciolinią między nutami	!	!	!	!	!	!	!
4D#\	.	4b/	4b/	4D#/	-runt	(8B\L	-te	4b\	in	4b\	pro-
.	.	.	.	.	.	8c#\J)	.	.	.	.	.
!	!	!	!	!	!	!	!	!LO:LB:g=original	!	!	!
4D#\	.	4b/	4b/	4D#/	ſe-	4d#X\	quae	4b\	Vir-	4b\	-pter
=20	=20	=20	=20	=20	=20	=20	=20	=20	=20	=20	=20
*	*	*	*	*	*	*	*	*	*	*2\right	*
4E\	.	4g#/	4ee\	4E\	-des	4B\	ad	4g#\	-tu-	2ee\	fra-
8G#\L	.	8e/L	4ee\	(8G#\L	in	4B\	pa-	(8e\L	-te	.	.
8F#\J	.	8g#/J	.	8F#\J)	.	.	.	8f#\J)	.	.	.
4E\	.	4g#/	4ee\	4E\	Ju-	4B\	-cem	4g#\	tu-	4ee\	-tres
!LO:LB:g=original	!	!	!	!	!	!	!	!	!	!	!
=21	=21	=21	=21	=21	=21	=21	=21	=21	=21	=21	=21
8B\L	#	4f#/	4dd#X\	(8B\L	-di-	(8d#X\L	quae	4f#,<\	-a	4dd#X\	me-
8A\	.	.	.	8A\J)	.	8c#\J)	.	.	.	.	.
8B\	.	4f#/	4b\	(8B\L	-ci-	(8d#X\L	ad	4f#\	in	4b\	-os
8c#\	.	.	.	8c#\J)	.	8e\J)	.	.	.	.	.
!	!	!	!LO:TX:a:t=P:problem=# above	!	!	!	!	!	!	!	!
8B\	.	4f#/	4dd#X\	(8B\L	-o	(8d#X\L	pa-	4f#\	Vir-	4dd#X\	et
8A\J	.	.	.	8A\J)	.	8c#\J)	.	.	.	.	.
=22	=22	=22	=22	=22	=22	=22	=22	=22	=22	=22	=22
*	*	*	*	*2\right	*	*	*	*	*	*	*
2G#\	6	8g#/L	8ee\L	2G#\	ſe-	4B\	-cem	(8g#\L	-tu-	(8ee\L	pro-
.	.	8f#/	8ddn\	.	.	.	.	8f#\J)	.	8dd\J)	.
.	.	8g#/	8ee\	.	.	4B\	ſunt	(8g#\L	-te	(8ee\L	-xi-
.	.	8a/	8ff#\	.	.	.	.	8a\J)	.	8ff#\J)	.
4G#\	-n5	8g#/	8ee\	4G#\	-des	4B\	Je-	(8g#\L	tu-	(8ee\L	-mos
.	.	8f#/J	8dd\J	.	.	.	.	8f#\J)	.	8dd\J)	.
=23	=23	=23	=23	=23	=23	=23	=23	=23	=23	=23	=23
8A\L	.	4e/	4cc#\	(8A\L	in	8.e\	-ru-	4e\	-a	4cc#\	me-
8G#\	.	.	.	8G#\J)	.	.	.	.	.	.	.
.	.	.	.	.	.	16e\	-ſa-	.	.	.	.
8A\	.	8r	4cc#\	(8A\L	Ju-	8e\	-lem	8r	.	4cc#\	-os
8B\	.	8e/L	.	8B\J)	.	8e\	et	8e\	et	.	.
!	!	!	!	!	!	!LO:LB:g=original	!	!	!	!	!
8A\	.	8e/	4cc#\	8A\	-di-	8e\	a-	8e\	a-	4cc#\	lo-
8G#\J	.	8e/J	.	8G#\	-ci-	8e\	-bun-	8e\	-bun-	.	.
=24	=24	=24	=24	=24	=24	=24	=24	=24	=24	=24	=24
2F#\	6	4a/	8ff#\L	4.F#\	-o	8d\L	-dan-	4.a\	-dan-	8ff#\L	-que-
.	.	.	8ee\	.	.	8c#\	.	.	.	8ee\J	.
.	.	8a/L	8ff#\	.	.	8d\	.	.	.	8ff#\L	-bar
.	.	8a/	8gg#\	8F#\	ſe-	8e\	.	8a\	-ti-	8gg#\J	.
4F#\	.	8a/	8ff#\	4F#\	-des	8d\	.	8a\	-a	8ff#\L	lo-
.	.	8a/J	8ee\J	.	.	8c#\J	.	8a\	in	8ee\J	.
=25	=25	=25	=25	=25	=25	=25	=25	=25	=25	=25	=25
*	*	*	*	*	*	*	*	*2\right	*	*	*
4G#\	6	8b\L	4dd\	4G#\	ſu-	8.B\	.	2g#\	tur-	2dd\	-que-
.	.	8ee\	.	.	.	.	.	.	.	.	.
.	.	.	.	.	.	16B\	-ti-	.	.	.	.
4E\	7	8cc#\J	4gg#\	4E\	-per	4B\	-a	.	.	.	.
.	.	8ee\L	.	.	.	.	.	.	.	.	.
4A\	.	8b\	4ee\	4A\	do-	8c#\	di-	4a\	-ri-	4cc#\	-bar
.	.	8ee\J	.	.	.	8c#\	-li-	.	.	.	.
!	!	!	!	!	!	!	!	!LO:PB:g=original	!	!	!
=26	=26	=26	=26	=26	=26	=26	=26	=26	=26	=26	=26
4D\	7	4dd\	4ff#\	4D/	-mu(m)	4.B\	-gen-	4a\	-bus	4ff#\	pa-
.	6	.	.	.	.	.	.	.	.	.	.
4E\	5 4	4b\	4.gg#\	2E\	Da-	.	.	(4a\	tu-	4.ee\	-cem
.	.	.	.	.	.	8B\	-ti-	.	.	.	.
4EE/	x 3	4ee\	.	.	.	4B\	-bus	4g#\)	.	.	.
.	.	.	8aa\	.	.	.	.	.	.	8dd\	de
!	!	!	!	!	!	!	!	!	!	!LO:LB:g=original	!
=27	=27	=27	=27	=27	=27	=27	=27	=27	=27	=27	=27
4AA/	.	4cc#\	4aa\	4AA/	-vit	4c#\	te	4a,<\	-is	4ee\	te
*clefC4	*	*	*	*	*	*	*	*	*	*	*
*k[f#c#]	*	*	*	*	*	*	*	*	*	*	*
!LO:TX:a:t=P:problem=po kluczu znaki F# c# f# jeden nad drugim	!	!	!	!	!	!	!	!	!	!	!
4A\	.	4r	4r	4r	.	4A\	(pro)-	4e\	pro-	4cc#\	pro-
4A\	.	4r	4r	4r	.	4A\	-pter	4e\	-pter	4cc#\	-pter
!	!	!LO:LB:g=original	!	!LO:LB:g=original	!	!	!	!	!	!	!
=28	=28	=28	=28-	=28	=28	=28	=28	=28	=28	=28	=28
!	!	!	!	!	!	!	!	!	!	!LO:N:vis=8	!
4e\	.	2.r	2.r	4r	.	2e\	do-	4g#\	do-	4b\	do-
*clefF4	*	*	*	*	*	*	*	*	*	*	*
*k[f#c#g#]	*	*	*	*	*	*	*	*	*	*	*
!LO:TX:a:t=P:problem=po kluczu znaki GG# C# F# jeden nad drugim	!	!	!	!	!	!	!	!	!	!	!
4E\	.	.	.	4E\	pro-	.	.	(8e\L	-mum	(8g#\L	-mu(m)
.	.	.	.	.	.	.	.	8f#\J)	.	8a\)J	.
4E\	.	.	.	4E\	-pter	4e\	-mum	4g#\	do-	4b\	do-
!LO:LB:g=original	!	!	!LO:PB:g=original	!	!	!	!	!	!	!	!
=29	=29	=29-	=29	=29	=29	=29	=29	=29	=29	=29	=29
2A\	.	4r	4r	2A\	do	4c#\	Do-	(4a\	-mum	8cc#\L	.
.	.	.	.	.	.	.	.	.	.	8b\	.
.	.	4e/	4a/	.	.	8c#\	-mi-	4e,<\)	.	8cc#\	.
.	.	.	.	.	.	8c#\	-ni	.	.	8ee\J	.
4A\	.	4e/	4a/	4A\	mu(m)	8d\	De-	4e\	Do-	(8dd\L	-mum
.	.	.	.	.	.	8e\	-i	.	.	8cc#\J)	.
=30	=30	=30	=30	=30	=30	=30	=30	=30	=30	=30	=30
*	*	*	*2\right	*	*	*	*	*	*	*	*
4G#\	6	4cc#\	2ee\	4G#\	Do-	4e\	Do-	4g#\	-mi-	4b\	Do-
!	!	!	!	!	!	!LO:LB:g=original	!	!	!	!	!
8G#\L	.	4a/	.	8G#\	-mi-	8e\	-mi-	8g#\	-ni	8b\	-mi-
8F#\	.	.	.	8F#\	-ni	8e\	-ni	8a\	De-	8a\	-ni
8G#\	.	8cc#\L	4ee\	8G#\	De-	8e\	De-	8g#\	-i	8b\	De-
8E\J	.	8dd\J	.	8E\	-i	8e\	-i	8g#\	noſ-	8ee\	-i
=31	=31	=31	=31	=31	=31	=31	=31	=31	=31	=31	=31
4A\	.	8ee\L	8ee\L	4A\	noſ-	4e\	noſ-	4a\	-tri	4cc#\	noſ-
.	.	8ff#\	8ff#\	.	.	.	.	.	.	.	.
4AA/	.	8ee\	8ee\	4AA,</	-tri	4e\	-tri	4a\	quae-	4b\	-tri
.	.	8ff#\	8ff#\	.	.	.	.	.	.	.	.
4A\	.	8ee\	8ee\	4A\	quae-	4c#\	quae-	4e\	.	4ee\	quae-
.	.	8ff#\J	8ff#\J	.	.	.	.	.	.	.	.
=32	=32	=32	=32	=32	=32	=32	=32	=32	=32	=32	=32
4G#\	6	8ee\L	8ee\L	4G#\	-ſi-	4B\	-ſi-	4e\	-ſi-	8ee\L	-ſi-
.	.	8dd\	8bb\	.	.	.	.	.	.	8ff#\	.
4E\	.	8cc#\	8bb\	4E\	-vi	4B\	-vi	4g#\	-vi	8ee\	.
.	.	8dd\	8bb\	.	.	.	.	.	.	8ff#\	.
*	*	*	*	*	*ij	*	*ij	*	*	*	*
4G#\	.	8cc#\	8bb\	4G#\	quae-	4B\	quae-	4e\	quae-	8ee\	.
.	.	8dd\J	8bb\J	.	.	.	.	.	.	8ff#\J	.
!	!	!	!	!	!	!	!	!LO:LB:g=original	!	!	!
=33	=33	=33	=33	=33	=33	=33	=33	=33	=33	=33	=33
!	!	!LO:TX:a:t=P:problem=mixed beam	!	!	!	!	!	!	!	!	!
4A\	.	8ee\L	8aa\L	4A\	-ſi-	4c#\	-ſi-	4a\	-si-	4ee\	-vi
.	.	8d/	8bb\	.	.	.	.	.	.	.	.
4AA/	.	8d/	8aa\	4AA,</	-vi	4A,<\	-vi	4g#\	-vi	4cc#\	quae
*	*	*	*	*	*Xij	*	*Xij	*	*	*	*
.	.	8d/	8bb\	.	.	.	.	.	.	.	.
*	*	*	*	*	*	*	*	*	*ij	*	*
4A\	.	8d/	8aa\	4A\	quae	4c#\	quae-	4e\	quae-	4ee\	.
.	.	8d/J	8bb\J	.	.	.	.	.	.	.	.
!	!	!	!	!	!	!	!	!	!	!LO:LB:g=original	!
=34	=34	=34	=34	=34	=34	=34	=34	=34	=34	=34	=34
8G#\L	.	2.r	8bb\L	(8G#\L	ſi-	8B\L	-ſi-	4e\	-si-	2.ee\	-si-
8F#\	.	.	8ee\	8F#\	.	8A\	.	.	.	.	.
8G#\	.	.	8ee\	8G#\	.	8B\	.	4g#\	.	.	.
8E\	.	.	8ee\	8E\	.	8G#\	.	.	.	.	.
8F#\	.	.	8ee\	8F#\)	.	8A\	.	4e\	.	.	.
8G#\J	.	.	8ee\J	8G#\J	.	8B\J	.	.	.	.	.
=35	=35	=35-	=35	=35	=35	=35	=35	=35	=35	=35	=35
!	!	!LO:TX:a:t=P:problem=mixed beam	!	!	!	!	!	!	!	!	!
4A\	.	8d/L	8ee\L	4A\	.	4.c#\	.	4.a,<\	-vi	4.ee\	-vi
*	*	*	*	*	*	*	*	*	*Xij	*	*
.	.	8ee\	8cc#\	.	.	.	.	.	.	.	.
8AA/L	.	8ee\	8cc#\	8AA/L	-vi	.	.	.	.	.	.
8BB/J	6	8dd\	8dd\	8BB/J	.	8B\	-vi	8g#\	bo-	8dd\	bo-
4C#/	6	8cc#\	8ee\	4C#/	bo-	4A/	bo-	4a\	-na	4cc#\	-na
.	.	8ee\J	8aa\J	.	.	.	.	.	.	.	.
=36	=36	=36	=36	=36	=36	=36	=36	=36	=36	=36	=36
4D\	6	8.dd\L	8ff#\L	4D\	-na	(8B\L	-na	4f#\	ti-	4b\	ti-
.	.	.	8aa\	.	.	8A\J)	.	.	.	.	.
.	.	16cc#\Jk	.	.	.	.	.	.	.	.	.
4E\	4	4cc#\	8cc#\	(4E\	ti-	4A/	ti-	2e\	-bi	2bT\	-bi
.	.	.	8aa\	.	.	.	.	.	.	.	.
4EE/	3	4b\	8b\	4EE/)	.	4G#/	.	.	.	.	.
.	.	.	8gg#\J	.	.	.	.	.	.	.	.
!	!	!	!	!LO:LB:g=original	!	!	!	!	!	!	!
=37	=37	=37	=37	=37	=37	=37	=37	=37	=37	=37	=37
4AA/	.	8cc#\L	8ee\L	2AA,</	-bi	2A,</	-bi	2.e\	quae-	2a\	quae
.	.	8dd\	8ff#\	.	.	.	.	.	.	.	.
4A\	.	8cc#\	8ee\	.	.	.	.	.	.	.	.
.	.	8dd\	8ff#\	.	.	.	.	.	.	.	.
4A\	.	8cc#\	8ee\	4A\	quae-	4c#\	quae-	.	.	4ee\	.
.	.	8dd\J	8ff#\J	.	.	.	.	.	.	.	.
=38	=38	=38	=38	=38	=38	=38	=38	=38	=38	=38	=38
4G#\	6	8ee\L	8ee\L	4G#\	-ſi-	4B\	-ſi-	4e\	-ſi-	8ee\L	-ſi-
.	.	8ff#\	8bb\	.	.	.	.	.	.	8ff#\	.
4E\	.	8ee\	8bb\	4E\	-vi	4B\	-ci	4g#\	-vi	8ee\	.
.	.	8ff#\	8bb\	.	.	.	.	.	.	8ff#\	.
*	*	*	*	*	*ij	*	*	*	*ij	*	*
4G#\	.	8ee\	8bb\	4G#\	quae-	4B\	quae-	4e\	bo-	8ee\	.
.	.	8ff#\J	8bb\J	.	.	.	.	.	.	8ff#\J	.
!	!	!LO:LB:g=original	!LO:LB:g=original	!	!	!LO:LB:g=original	!	!	!	!	!
=39	=39	=39	=39	=39	=39	=39	=39	=39	=39	=39	=39
4A\	.	8ee\L	8aa\L	4A\	-ſi-	4c#\	-si-	4a\	-na	4ee\	-vi
.	.	8dd\	8bb\	.	.	.	.	.	.	.	.
4AA/	.	8cc#\	8aa\	4AA/	-vi	4A\	-vi	4a\	ti-	4cc#\	quae
*	*	*	*	*	*Xij	*	*	*	*	*	*
.	.	8dd\	8bb\	.	.	.	.	.	.	.	.
4A\	.	8cc#\	8aa\	4A\	quae-	4c#\	quae-	4e\	-bi	4ee\	.
.	.	8dd\J	8bb\J	.	.	.	.	.	.	.	.
!LO:LB:g=original	!	!	!	!	!	!	!	!	!	!	!
=40	=40	=40	=40	=40	=40	=40	=40	=40	=40	=40	=40
!	!	!LO:TX:a:t=P:problem=mixed beam	!LO:TX:a:t=P:problem=mixed beam	!	!	!	!	!	!	!	!
8G#\L	.	8ee\L	8bb\L	8G#\L	-ſi-	8B\L	-ſi-	4e\	quae-	[2.eeT\	-ſi-
8F#\	.	8c#/	8d/	8F#\	.	8A\	.	.	.	.	.
8G#\	.	8c#/	8d/	8G#\	.	8B\	.	4g#\	-si-	.	.
8E\	.	8c#/	8d/	8E\	.	8G#\	.	.	.	.	.
8F#\	.	8c#/	8d/	8F#\	.	8A\	.	4e\	.	.	.
8G#\J	.	8c#/J	8d/J	8G#\J	.	8B\J	.	.	.	.	.
=41	=41	=41	=41	=41	=41	=41	=41	=41	=41	=41	=41
!	!	!LO:TX:a:t=P:problem=mixed beam	!LO:TX:a:t=P:problem=mixed beam	!	!	!	!	!	!	!	!
4A\	.	8d/L	8e/L	4A\	.	4.c#\	.	4.a\	-vi	4.ee\]	-vi
*	*	*	*	*	*	*	*	*	*Xij	*	*
.	.	8ee\	8cc#\	.	.	.	.	.	.	.	.
8AA/L	.	8ee\	8cc#\	(8AA/L	-vi	.	.	.	.	.	.
8BB/J	.	8dd\	8dd\	8BB/J)	.	8B\	-vi	8g#\	bo-	8dd\	bo-
4C#/	.	8cc#\	8ee\	4C#/	bo-	4A/	bo-	4a\	-na	4cc#\	-na
.	.	8ee\J	8aa\J	.	.	.	.	.	.	.	.
!	!	!	!	!	!	!	!	!LO:LB:g=original	!	!	!
=42	=42	=42	=42	=42	=42	=42	=42	=42	=42	=42	=42
4D\	5 6	8dd\L	8ff#\L	4D/	-na	(8B\L	-na	4f#\	ti-	4b\	ti-
.	.	8dd\J	8aa\	.	.	8A\J)	.	.	.	.	.
4E\	5 4	4cc#\	8cc#\	4E\	ti-	(>4.A/	ti-	2e\	.	2b\	-bi
.	x 3	.	8aa\	.	.	.	.	.	.	.	.
4EE/	.	4b/	8b\	4EE/	.	.	.	.	.	.	.
.	.	.	8gg#\J	.	.	8G#/)	.	.	.	.	.
=43	=43	=43	=43	=43	=43	=43	=43	=43	=43	=43	=43
!	!	!	!	!	!	!LO:TX:a:t=P:problem=oddech zaznaczony "	!	!	!	!	!
2AA/	.	8cc#\L	8ee\L	2AA,</	-bi	2A,</	-bi	2e\	-bi	2a\	quae
.	.	8dd\	8ff#\	.	.	.	.	.	.	.	.
.	.	8cc#\	8ee\	.	.	.	.	.	.	.	.
.	.	8dd\	8ff#\	.	.	.	.	.	.	.	.
4A\	.	8cc#\	8ee\	4A\	quae-	4c#\	quae-	4e\	quae-	4ee\	.
.	.	8dd\J	8ff#\J	.	.	.	.	.	.	.	.
!	!	!	!	!	!	!	!	!	!	!LO:LB:g=original	!
=44	=44	=44	=44	=44	=44	=44	=44	=44	=44	=44	=44
4G#\	6	8ee\L	8ee\L	4G#\	-ſi-	4B\	-ſi-	4e\	-ſi-	8ee\L	-si-
.	.	8ff#\	8bb\	.	.	.	.	.	.	8ff#\	.
4E\	.	8ee\	8bb\	4E\	-vi	4B\	-vi	4g#\	-vi	8ee\	.
.	.	8ff#\	8bb\	.	.	.	.	.	.	8ff#\	.
!	!	!	!	!LO:TX:a:t=P:problem=wysokość dźwięku niejasna	!	!	!	!	!	!	!
*	*	*	*	*	*ij	*	*	*	*	*	*
4G#\	.	8ee\	8bb\	4A 4G#\	quae-	4B\	quae-	4e\	quae-	8ee\	.
.	.	8ff#\J	8bb\J	.	.	.	.	.	.	8ff#\J	.
=45	=45	=45	=45	=45	=45	=45	=45	=45	=45	=45	=45
4.A\	.	4.ee\	8ee\L	4.A\	-ſi-	4.c#\	-ſi-	4.a\	-ſi-	4.ee\	.
.	.	.	8ee\	.	.	.	.	.	.	.	.
.	.	.	8ff#\	.	.	.	.	.	.	.	.
8E\	.	8ee\L	8gg#\J	8E\	-vi	8B\	-vi	8g#\	-vi	8dd\	-vi
*	*	*	*	*	*Xij	*	*	*	*	*	*
!	!	!	!	!LO:LB:g=original	!	!	!	!	!	!	!
4F#\	.	8dd\	4aa\	4F#\	bo-	4A/	bo-	4f#\	bo-	4cc#\	bo-
.	.	8cc#\J	.	.	.	.	.	.	.	.	.
=46	=46	=46	=46	=46	=46	=46	=46	=46	=46	=46	=46
4D\	.	4b\	4aa\	4D\	-na	4A\	-na	4f#\	-na	8cc#\L	-na
.	.	.	.	.	.	.	.	.	.	8b\J	.
4E\	.	4ee\	4aa\	4E\	ti-	(4A\	ti-	2e\	ti-	2bT\	ti-
4EE/	.	4ee\	4gg#\	4EE/	.	4B\)	.	.	.	.	.
=47	=47	=47	=47	=47	=47	=47	=47	=47	=47	=47	=47
*	*	*2\right	*	*	*	*	*	*	*	*	*
!	!	!	!	!	!	!	!	!	!	!LO:TX:a:t=P:problem=pojedyncza kreska taktowa	!
2.AA/	.	2.ee\	2.aa\	2.AA/	-bi	2.c#\	-bi	2.e\	-bi	2.a\	-bi
!	!	!LO:LB:g=original	!	!	!	!LO:LB:g=original	!	!	!	!	!
=48||	=48||	=48||	=48||	=48||	=48||	=48||	=48||	=48||	=48||	=48||	=48||
*M4/4	*	*M4/4	*M4/4	*M4/4	*	*M4/4	*	*M4/4	*	*M4/4	*
*met(c)	*	*met(c)	*met(C.)	*met(C.)	*	*met(C.)	*	*met(C.)	*	*met(C.)	*
!LO:TX:a:t=adagio	!	!	!	!	!	!	!	!	!	!	!
!LO:TX:b:t=Gloria	!	!	!LO:TX:b:t=Gloria	!	!	!	!	!	!	!	!
[<1F#	.	4.ff#\	4.aa\	4.F#\	Glo-	4.c#\	Glo-	4.f#\	Glo-	4.a\	Glo-
.	.	8ff#\	8aa\	8F#\	-ri-	8c#\	-ri-	8f#\	-ri-	8a\	-ri-
.	.	2ff#\	2aa\	2F#\	-a	2c#\	-a	2f#\	-a	2a\	-a
!	!	!	!LO:LB:g=original	!	!	!	!	!	!	!	!
=49	=49	=49	=49	=49	=49	=49	=49	=49	=49	=49	=49
2F#\]	4 2	4dd\	4gg#\	4F#\	Pa-	4d\	Pa-	4g#\	Pa-	4b\	Pa-
.	.	8dd\L	8gg#\L	8F#\	-tri	8d\	-tri	8g#\	-tri	8b\	-tri
.	.	8dd\J	8gg#\J	8F#\	et	8c#\	et	8a\	et	8cc#\	et
!LO:LB:g=original	!	!	!	!	!	!	!	!	!	!	!
2E#\	7 n5	8dd\L	8gg#\L	8E#X\	fi-	8B\	fi-	8b\	fi-	8dd\	fi-
!	!	!	!	!	!	!	!	!LO:LB:g=original	!	!	!
.	.	8dd\	8gg#\	16E#\	-li-	16B\	-li-	16b\	-li-	16dd\	-li-
.	.	.	.	16E#\	-o	16B\	-o	16b\	-o	16dd\	-o
.	.	8dd\	8gg#\	8E#\	et	8B\	et	8g#\	et	8dd\	et
.	.	8dd\J	8gg#\J	8E#\	ſpi-	8B\	ſpi-	8g#\	ſpi-	8dd\	ſpi-
!	!	!	!	!	!	!	!	!	!	!LO:LB:g=original	!
=50	=50	=50	=50	=50	=50	=50	=50	=50	=50	=50	=50
2F#\	6 4	8dd\L	8gg#\L	8.F#\	-ri-	8.B\	-ri-	8.f#\	-ri-	8.dd\	-ri-
.	.	8dd\	8gg#\	.	.	.	.	.	.	.	.
.	.	.	.	16F#\	-tu-	16B\	-tu-	16f#\	-tu-	16dd\	-tu-
.	5 8	8cc#\	8ff#\	4F#\	-i	4A/	-i	4f#\	-i	4cc#\	-i
.	.	8cc#\J	8ff#\J	.	.	.	.	.	.	.	.
!	!	!LO:TX:a:t=P:problem=mixed beam	!	!	!	!	!	!	!	!	!
4C#/	6 4	8cc#\L	8ff#\L	8C#/	ſan-	(16A/LL	ſan-	(16f#\LL	ſan-	8cc#\	ſan-
.	.	.	.	.	.	16G#/JJ)	.	16e#X\JJ)	.	.	.
.	5 #3r	8cc#\	8aa\J	8C#,</	-cto	8G#,</	-cto	8e#,<\	-cto	8cc#\	-cto
!	!	!	!	!	!	!LO:TX:b:t=Solo	!	!	!	!	!
4r	.	8c#/	8c#/L	8C#/	ſi-	8G#/	ſi-	8e#\	ſi-	4r	.
.	.	8c#/J	8c#/J	8C#/	-cut	8G#/	-cut	8e#\	-cut	.	.
!	!	!	!	!LO:LB:g=original	!	!	!	!	!	!	!
=51	=51	=51	=51	=51	=51	=51	=51	=51	=51	=51	=51
4C#/	5	4r	4r	8C#/	e-	(16A/LL	e-	(16f#\LL	e-	1r	.
.	.	.	.	.	.	16G#/JJ)	.	16e#X\JJ)	.	.	.
.	.	.	.	8C#/	-rat	8G#/	-rat	8e#\	-rat	.	.
4r	.	8c#/L	8c#/L	8C#/	in	8A/	in	8f#\	in	.	.
!	!	!	!	!	!	!LO:LB:g=original	!	!	!	!	!
.	.	8c#/J	8c#/J	8C#/	prin-	8B\	prin-	8g#\	prin-	.	.
4C#/	5	4r	4r	8.C#/	-ci-	8.G#/	-ci-	8.e#X\	-ci-	.	.
.	.	.	.	16C#/	-pi-	16G#/	-pi-	16e#\	-pi-	.	.
4r	.	8c#/L	8c#/L	8C#/	-o	8G#,</	-o	8e#\	-o	.	.
.	.	8c#/J	8c#/J	8C#/	et	8G#/	et	8e#\	et	.	.
!	!	!	!	!	!	!	!	!LO:LB:g=original	!	!	!
=52	=52	=52	=52	=52	=52	=52	=52	=52	=52	=52-	=52
4C#/	5	4r	4r	8C#/	nunc	16A/LL	nunc	(16f#\LL	e-	2r	.
.	.	.	.	.	.	16G#/JJ	.	16e#X\JJ)	-rat	.	.
.	.	.	.	8C#/	et	8G#/	et	8e#\	in	.	.
4r	.	8c#/L	8c#/L	8C#/	ſem-	8A/	ſem-	8f#\	prin-	.	.
.	.	8c#/J	8c#/J	8C#/	-per	8B\	-per	8g#\	-ci-	.	.
*	*	*	*	*	*ij	*	*	*	*	*	*
4C#/	5	4c#/	4c#/	8C#/	ſem-	8G#/	ſem-	8e#X\	-pi-	4r	.
.	.	.	.	8C#/	-per	8G#/	-per	8e#\	-o	.	.
*	*	*	*	*	*Xij	*	*	*	*	*	*
4F#\	n7 #3	8cc#\L	8aa#X\L	8F#\	et	8A#X/	et	8en\	et	8cc#\	et
.	.	8cc#\J	8aa#\J	8F#\	in	(16A#\LL	in	8e\	in	(16cc#\LL	in
.	.	.	.	.	.	16B\JJ)	.	.	.	16dd\JJ)	.
=53	=53	=53	=53	=53	=53	=53	=53	=53	=53	=53	=53
2B\	4 9	8.ee\L	4.bb\	8.B\	ſae-	8.c#\	ſae-	8.e\	ſae-	8.ee\	ſae-
.	.	16ee\K	.	16B\	-cu-	16B\	-cu-	16d\	-cu-	16ee\	-cu-
.	3 8	8ff#\	.	4B\	-la	4B\	-la	4d\	-la	4ff#\	-la
.	7	8dd\J	8bb\	.	.	.	.	.	.	.	.
8G#\L	6_ 5_	8gg#X\L	8bb\L	8G#\	ſae-	8d\	ſae-	8b\	ſae-	8ee\	ſae-
8G#\	.	8gg#\J	8bb\	8G#\	-cu-	8d\	-cu-	8b\	-cu-	8ee\	-cu-
!	!	!LO:LB:g=original	!	!	!	!	!	!	!	!	!
8G#\	.	8gg#X\L	8bb\	8G#\	-lo-	8d\	-lo-	8b\	-lo-	8ee\	-lo-
8G#\J	X X	8gg#\J	8bb\J	8G#\	-ru(m)	8d\	-rum	8b\	-rum	8ee\	-rum
!	!	!	!	!LO:LB:g=original	!	!	!	!	!	!	!
=54	=54	=54	=54	=54	=54	=54	=54	=54-	=54	=54	=54
8r	.	0r	0r	8r	.	1r	.	0r	.	0r	.
8A\	.	.	.	8A\	A-	.	.	.	.	.	.
16G#\LL	5	.	.	16G#\LL	.	.	.	.	.	.	.
16A\	5	.	.	16A\	.	.	.	.	.	.	.
16F#\	5	.	.	16F#\	.	.	.	.	.	.	.
16G#\JJ	5	.	.	16G#\JJ	.	.	.	.	.	.	.
8A\L	5	.	.	8A\L	.	.	.	.	.	.	.
16G#\L	5	.	.	16G#\L	.	.	.	.	.	.	.
16A\JJ	5	.	.	16A\JJ	.	.	.	.	.	.	.
8F#\L	5	.	.	8F#\L	.	.	.	.	.	.	.
8B\J	5	.	.	8B\J	.	.	.	.	.	.	.
!LO:LB:g=original	!	!	!	!	!	!	!	!	!	!	!
=55	=55	=55	=55	=55	=55	=55-	=55	=55	=55	=55	=55
8E\L	.	.	.	8E,<\	-men	8r	.	.	.	.	.
8E\J	8	.	.	8E\	a-	8e\	a-	.	.	.	.
!	!	!	!	!	!	!LO:LB:g=original	!	!	!	!	!
4F#\	6\	.	.	4F#\	.	16d#X\LL	.	.	.	.	.
.	.	.	.	.	.	16e\	.	.	.	.	.
.	.	.	.	.	.	16c#\	.	.	.	.	.
.	.	.	.	.	.	16d#\JJ	.	.	.	.	.
8G#\L	6	.	.	16G#\LL	.	8e\L	.	.	.	.	.
.	.	.	.	16A\JJ	.	.	.	.	.	.	.
16A\L	.	.	.	8B,<\	-men	16d#X\L	.	.	.	.	.
[<16B\JJ	#	.	.	.	.	16e\JJ	.	.	.	.	.
8B\L]	2	.	.	(8B\L	A-	8c#\L	.	.	.	.	.
8A#X\J	6	.	.	8A#X\J)	.	8f#\J	.	.	.	.	.
=56	=56	=56-	=56	=56	=56	=56	=56	=56-	=56	=56	=56
8B\L	#	2rg	1r	8B\L	.	16d#X\LL	.	2rf	.	1rdd	.
.	.	.	.	.	.	16B\JJ	.	.	.	.	.
16A\L	.	.	.	16An\L	.	4e\	.	.	.	.	.
16G#\JJ	6	.	.	16G#\JJ	.	.	.	.	.	.	.
8F#\L	.	.	.	8F#\L	.	.	.	.	.	.	.
8B\J	.	.	.	8B\J	.	8d#X\	.	.	.	.	.
8E\L	6	8r	.	8E\	-men	8e,<\	-men	8r	.	.	.
!	!	!	!	!LO:TX:a:t=P:problem=mixed beam	!	!	!	!	!	!	!
8C#\J	.	8a/	.	(>8C#\L	a-	8A/	A-	8a\	A-	.	.
!LO:TX:a:t=P:problem=mixed beam	!	!	!	!	!	!	!	!	!	!	!
8E\L	4	16g#/LL	.	8E\)	.	4B\	.	16g#\LL	.	.	.
.	.	16a/	.	.	.	.	.	16a\	.	.	.
8EE/J	3	16f#/	.	8EE/J	.	.	.	16f#\	.	.	.
.	.	16g#/JJ	.	.	.	.	.	16g#\JJ	.	.	.
!	!	!	!	!	!	!	!	!LO:LB:g=original	!	!	!
=57	=57	=57	=57	=57	=57	=57	=57	=57	=57	=57	=57
!LO:TX:a:t=P:problem=mixed beam	!	!	!	!	!	!	!	!	!	!	!
8AA/L	.	8a/L	2r	8AA/	-men	16c#\LL	.	8a\L	.	2rcc	.
.	.	.	.	.	.	16d\JJ	.	.	.	.	.
8E\J	.	16g#/L	.	8E\	A-	8e,<\	-men	16g#\L	.	.	.
.	.	16a/JJ	.	.	.	.	.	16a\JJ	.	.	.
4F#\	7	8e/L	.	4F#\	.	(8e\L	A-	8f#\L	.	.	.
.	6\	8b/J	.	.	.	8d#X\J)	.	8b\J	.	.	.
8G#\L	6	8e/L	8r	8G#,<\	-	8e,<\	-men	8e,<\	-men	8r	.
*	*	*	*	*	*	*	*ij	*	*	*	*
8E\	.	8e/J	8ee\	8E\L	A-	4B\	A-	(8e\	A-	8ee\	A-
!	!	!	!	!	!	!	!	!	!	!LO:LB:g=original	!
8B\	#	4f#/	16dd#X\LL	8B\	.	.	.	4f#\)	.	16dd#X\LL	.
.	.	.	16ee\	.	.	.	.	.	.	16ee\	.
8A\J	4	.	16cc#\	8A\J	.	8B\	.	.	.	16cc#\	.
.	#	.	16dd#X\JJ	.	.	.	.	.	.	16dd#X\JJ	.
!	!	!	!	!LO:LB:g=original	!	!	!	!	!	!	!
=58	=58	=58	=58	=58	=58	=58	=58	=58	=58	=58	=58
8G#\	6	8g#/L	8ee\L	8G#\	-men	8B\	.	8g#,<\	-men	8ee\L	.
4B\	4 #2	8f#/	16dd#X\L	8r	.	8B\	.	8f#\	A-	16dd#X\L	.
.	.	.	16ee\JJ	.	.	.	.	.	.	16ee\JJ	.
!	!	!	!LO:LB:g=original	!	!	!	!	!	!	!	!
!	!	!	!LO:TX:a:t=P:problem=nieczytelne dźwięki, zapis prawdopodobny	!	!	!	!	!	!	!	!
.	.	8g#/	8cc#\L	4r	.	4c#\	.	(8g#\L	.	8cc#\L	.
8A#X\	6	8f#/J	8ff#\J	.	.	.	.	8f#\J)	.	8ff#\J	.
8B\L	#	8f#/L	8dd#\L	2rF	.	8d#X,<\	-men	8f#\	-men	16dd#X\LL	.
*	*	*	*	*	*	*	*Xij	*	*	*	*
.	.	.	.	.	.	.	.	.	.	16b\JJ	.
8G#\J	6	8g#/	8b\J	.	.	(8B\L	A-	8g#\L	A-	4ee\	.
!LO:LB:g=original	!	!	!	!	!	!	!	!	!	!	!
8F#\L	7	8a/	8ee\	.	.	8c#\	.	8a\	.	.	.
8B\J	#	8f#/J	8dd#\	.	.	8B\J)	.	8f#\J	.	8dd#X\	.
!	!	!	!	!	!	!LO:LB:g=original	!	!	!	!	!
=59	=59	=59	=59	=59	=59	=59	=59	=59	=59	=59	=59
!LO:TX:a:t=P:problem=mixed beam	!	!	!	!	!	!	!	!	!	!	!
8E/L	.	8g#/L	8ee\L	2rF	.	8B,<\	-men	8g#\	-men	8ee,<\	-men
8c#\J	6	8a/J	8aa\J	.	.	8c#\	A-	8a\	A-	8a\	A-
4B\	7	16b\LL	16gg#\LL	.	.	4d\	.	16g#\LL	.	16b\LL	.
.	6	16cc#\	16ee\JJ	.	.	.	.	16a\	.	16cc#\	.
.	.	16a\	8aa\L	.	.	.	.	16f#\	.	16a\	.
.	.	16b\JJ	.	.	.	.	.	16g#\JJ	.	16b\JJ	.
8B\L	.	8cc#\L	8gg#\	8r	.	8c#\	-men	8a\	-men	8cc#,<\	-men
*	*	*	*	*	*	*	*	*	*ij	*	*
8d\J	.	8dd\J	8aa\J	8d\	A-	(8f#\L	A-	4a\	A-	8dd\	A-
16c#\LL	.	16ee\LL	4aa\	16c#\LL	.	8e\J)	.	.	.	16ee\LL	.
16d\	.	16ff#\	.	16d\	.	.	.	.	.	16ff#\	.
16B\	.	16cc#\	.	16c#\	.	8e\	.	8a\	-men	16dd\	.
16c#\JJ	.	16dd\JJ	.	16d\JJ	.	.	.	.	.	16ee\JJ	.
!	!	!LO:LB:g=original	!	!	!	!	!	!	!	!	!
=60	=60	=60	=60	=60	=60	=60	=60	=60	=60	=60	=60
8d\L	.	8ff#\L	8aa\L	8d\L	.	8d\	-A-	8a\	A-	8ff#\	.
16c#\L	.	8ee\J	8aa\	16c#\L	.	8e\	.	8a\	.	8ee\	-men
16d\JJ	.	.	.	16d\JJ	.	.	.	.	.	.	.
8B\L	7	16dd\LL	8dd\	8B\L	.	16B\LL	.	(8a\L	-men	16dd\LL	A-
*	*	*	*	*	*	*	*	*	*Xij	*	*
.	.	16ff#\	.	.	.	16d\	.	.	.	16ff#\	.
8E\J	.	16ee\	8gg#\J	8E\J	.	16c#\	.	8g#\J)	.	16ee\	.
.	.	16dd\JJ	.	.	.	16B\JJ	.	.	.	16dd\JJ	.
!	!	!	!	!	!	!	!	!LO:LB:g=original	!	!LO:LB:g=original	!
4.A\	.	8cc#\L	8ee\L	8A,<\	-men	8A,<\	-men	8a\	A-	8cc#\	-men
*	*	*	*	*	*ij	*	*	*	*	*	*
.	.	8a\J	8ee\	4A\	A-	8c#\	A-	8a,<\	-men	8ee\L	A-
.	4 2	8b\L	8dd\	.	.	(16d\LL	.	(8b\L	A-	8dd\	.
.	.	.	.	.	.	16e\)	.	.	.	.	.
8G#\	6	16a\L	8ee\J	8G#\	.	16c#\	.	16a\L	.	8ee\J	.
.	.	16b\JJ	.	.	.	16d\JJ	.	16b\JJ)	.	.	.
=61	=61	=61	=61	=61	=61	=61	=61	=61	=61	=61	=61
!LO:TX:a:t=P:problem=mixed beam	!	!	!	!	!	!	!	!	!	!	!
8A\L	.	8a/L	8ee\L	8A\	.	8c#\	-men	8a\	.	8ee\	.
8D\	6 5	8a/J	8ff#\	8D/	-men	8B\	A-	8a\	-men	8ff#,<\	-men
*	*	*	*	*	*Xij	*	*	*	*	*	*
!	!	!	!	!LO:TX:a:t=P:problem=mixed beam	!	!	!	!	!	!	!
8E\	5 4	8b\L	8.ee\	8E\L	A-	4B\	.	(8a\L	A-	4ee\	A-
8EE/J	x 3	8ee\J	.	8EE/J	.	.	.	8g#\J)	.	.	.
.	.	.	16ee\Jk	.	.	.	.	.	.	.	.
4AA/	.	4cc#\	4ee\	4AA/	-men	4c#\	-men	4a\	-men	4ee\	-men
4r	.	4r	4r	4r	.	4r	.	4r	.	4r	.
!LO:LB:g=original	!	!	!	!	!	!	!	!	!	!	!
=62	=62	=62	=62	=62	=62	=62	=62	=62	=62	=62	=62
1E	5 3	4.g#/	4ee\	1E	A-	4B\	A-	4.g#\	A-	4.ee\	A-
.	6 4	.	4aa\	.	.	4A/	.	.	.	.	.
.	.	8cc#\	.	.	.	.	.	8a\	-men	8cc#\	.
!	!	!	!	!	!	!LO:TX:b:t=adagio	!	!	!	!	!
.	5 4	4b/	4.bb\	.	.	2e\	.	4a\	A-	2b\	.
.	x 3	4ee\	.	.	.	.	.	4e\	.	.	.
.	.	.	8ee\	.	.	.	.	.	.	.	.
=63	=63	=63	=63	=63	=63	=63	=63	=63	=63	=63	=63
!	!	!LO:TX:a:t=P:problem=wysokość dźwięku końcowego widać na kresce taktowej	!LO:TX:a:t=P:problem=wysokość dźwięku końcowego widać na kresce taktowej	!LO:TX:a:t=P:problem=wysokość dźwięku końcowego widać na kresce taktowej	!	!LO:TX:a:t=P:problem=wysokość dźwięku końcowego widać na kresce taktowej	!	!LO:TX:a:t=P:problem=wysokość dźwięku końcowego widać na kresce taktowej	!	!LO:TX:a:t=P:problem=wysokość dźwięku końcowego widać na kresce taktowej	!
!	!	!	!	!	!	!	!	!	!	!LO:SIC:s=1cc#:v	!
1AA;;	.	1cc#	1ee	1AA	-men	1e	-men	1a	-men	1b	-men
==	==	==	==	==	==	==	==	==	==	==	==
*-	*-	*-	*-	*-	*-	*-	*-	*-	*-	*-	*-
!!!system-decoration: [g1][g2]s7
!!!RDF**kern: > = above
!!!RDF**kern: < = below
!!!RDF**kern: | = vertical stroke
!!!ENC: Marta Lawrence
!!!END: 2020-11-08
!!!ENC: Berenika Jozajtis
!!!END: 2020-05-07
!!!YEC: Copyright 2022 Narodowy Instytut Fryderyka Chopina (https://polishscores.org)
!!!YEM: License CC-BY-4.0 (https://creativecommons.org/licenses/by/4.0)
